src/assets/chicken.svg

<svg width="105" height="133" viewBox="0 0 105 133" fill="none" xmlns="http://www.w3.org/2000/svg">
<g filter="url(#filter0_d_340_59985)">
<path fill-rule="evenodd" clip-rule="evenodd" d="M65.6185 0.0206686C64.8282 0.0626816 63.1882 0.196692 62.1299 0.30571C58.6951 0.659624 53.6014 1.58779 50.3694 2.44859C49.9936 2.5487 49.6052 2.6514 49.5063 2.67682C48.7209 2.87856 45.4547 3.92608 44.9747 4.13026C44.8758 4.17234 44.4065 4.3582 43.9318 4.54321C39.5543 6.24958 35.3102 8.67268 32.0634 11.3192C28.3112 14.3778 25.4056 17.8537 22.8736 22.3132C22.3838 23.1757 21.322 25.3172 21.0931 25.904C21.0084 26.1213 20.8944 26.396 20.8399 26.5145C20.632 26.9661 20.0944 28.4218 19.779 29.3872C18.0173 34.7787 17.259 40.8383 17.5717 47.0257C17.7348 50.254 18.2292 53.656 19.1517 57.8985C19.3235 58.6887 20.1681 62.0547 20.3397 62.6331C20.3991 62.8336 20.6123 63.5793 20.8132 64.2903C21.2878 65.9692 22.1057 68.6676 22.783 70.7897C22.9154 71.2044 23.1914 72.077 23.3963 72.7288C23.6012 73.3805 23.8934 74.3016 24.0456 74.7756C25.0933 78.0385 25.2834 78.7429 25.4893 80.1259C25.6193 80.9999 25.637 81.3462 25.599 82.2804C25.5249 84.0995 25.4989 84.1817 24.5091 85.7276C24.0413 86.4584 23.3306 87.6057 22.93 88.2772C21.8229 90.1324 21.8413 90.1031 20.8316 91.6253C19.028 94.3443 17.2529 96.3423 15.412 97.7252C14.7453 98.226 13.7334 98.8072 11.9591 99.7082C9.54115 100.936 8.77259 101.464 7.5869 102.714C5.81809 104.577 4.51579 106.976 4.1565 109.034C3.80987 111.018 4.04278 112.952 4.81804 114.526C5.09317 115.085 5.25904 115.313 5.73363 115.783C6.39373 116.437 6.96478 116.771 7.96698 117.087C8.60506 117.288 8.63916 117.291 10.3407 117.288C12.2753 117.285 12.557 117.243 15.1527 116.576C16.5497 116.217 17.0967 116.172 17.8126 116.358C19.3705 116.764 20.4142 117.639 22.6274 120.396C24.1262 122.264 24.4655 122.643 25.2632 123.341C26.6403 124.546 28.1387 125.075 29.9409 124.991C32.6447 124.866 35.4005 123.582 37.5092 121.467C38.9204 120.051 39.829 118.308 40.1171 116.465C40.2389 115.686 40.2047 113.915 40.0513 113.054C39.7977 111.631 39.1332 109.609 38.175 107.345C37.5279 105.815 37.464 105.176 37.7834 103.427C38.1054 101.664 38.8074 99.6965 40.0804 96.9893C40.6791 95.7159 40.7709 95.5623 41.0547 95.3587C41.227 95.2352 41.4593 94.9876 41.5709 94.8086C42.7881 92.856 44.2243 91.468 46.2695 90.268C46.9093 89.8925 48.8368 88.9437 49.1466 88.8516C49.2455 88.8222 49.3588 88.774 49.3984 88.7444C49.4626 88.6964 51.6623 87.8559 52.887 87.4114C55.1447 86.592 55.7022 86.3832 56.5194 86.0505C58.7665 85.136 62.1301 83.6226 64.5036 82.4583C69.3124 80.0993 73.3222 77.6423 77.9018 74.2489C80.8496 72.0647 82.7858 70.3969 85.3296 67.8512C88.4675 64.7111 90.7129 61.8643 92.7908 58.3914C94.6407 55.2998 96.6088 51.1076 97.8876 47.5348C99.6118 42.7176 100.454 38.9732 100.87 34.2814C101 32.8125 101.018 32.2173 100.987 30.3926C100.966 29.2076 100.914 27.9311 100.87 27.5558C100.662 25.767 100.557 24.9545 100.458 24.36C100.399 24.0045 100.319 23.5197 100.281 23.2827C99.7978 20.2912 98.91 17.5984 97.7005 15.456C97.2208 14.6065 95.9206 12.7967 95.1714 11.9356C92.9497 9.38231 91.713 8.18383 89.6424 6.57728C86.7767 4.35382 82.9732 2.44844 79.357 1.42469C77.075 0.778692 75.3456 0.455014 72.5597 0.15252C71.6061 0.0490319 66.8025 -0.0422431 65.6185 0.0206686ZM63.5685 3.10966C63.4103 3.12525 62.6334 3.18751 61.8422 3.24791C57.912 3.54804 53.9249 4.25235 49.758 5.38253C49.4811 5.45765 49.0927 5.56207 48.8949 5.61457C48.6971 5.66707 48.4381 5.74276 48.3195 5.78284C48.2008 5.82284 47.8123 5.94335 47.4563 6.05064C46.5906 6.31141 46.1723 6.45002 45.1905 6.80149C44.7356 6.96437 44.2662 7.13092 44.1475 7.17171C44.0289 7.21243 43.8346 7.28712 43.716 7.33768C43.5973 7.38824 43.2736 7.51858 42.9967 7.62731C42.7197 7.73605 42.2342 7.93584 41.9177 8.07129C41.6012 8.20666 41.2775 8.34512 41.1984 8.37888C40.9982 8.46427 38.1299 9.88215 37.9976 9.96115C37.9382 9.99663 37.4265 10.2937 36.8605 10.6215C36.2944 10.9493 35.7765 11.2499 35.7096 11.2896C34.9229 11.7556 32.2048 13.705 31.9555 13.982C31.9357 14.004 31.5796 14.3159 31.1643 14.6754C29.1563 16.4126 27.4251 18.3812 25.9631 20.5896C25.6885 21.0043 25.4032 21.4312 25.329 21.5383C25.2548 21.6453 25.1941 21.7486 25.1941 21.7678C25.1941 21.7871 25.0842 21.9903 24.9499 22.2195C24.3245 23.2871 23.6352 24.7488 23.0768 26.1913C22.9315 26.5665 22.7844 26.9426 22.7499 27.027C22.6387 27.2986 22.1213 28.8674 21.9596 29.4231C21.2549 31.8446 20.837 34.0012 20.5052 36.928C20.3883 37.9585 20.3515 38.8468 20.324 41.3088C20.2932 44.0639 20.3063 44.5905 20.4456 46.1924C20.7396 49.5746 21.2544 52.3867 22.1413 55.4568C22.4624 56.5685 22.7875 57.5861 23.0015 58.1499C23.8753 60.4516 24.5986 62.0274 25.5646 63.7337C25.8832 64.2966 26.1588 64.7571 26.177 64.7571C26.214 64.7571 26.1805 64.4881 25.9756 63.1412C25.7577 61.7084 25.4566 60.1764 24.797 57.1445C24.5398 55.9621 24.3364 55.0115 24.1516 54.1281C24.098 53.8714 24.0048 53.4351 23.9448 53.1586C23.8847 52.8821 23.7515 52.2034 23.6488 51.6505C23.546 51.0975 23.4327 50.5157 23.3969 50.3577C23.3612 50.1997 23.3123 49.9089 23.2882 49.7114C23.2642 49.5139 23.1996 49.1099 23.1445 48.8137C23.0895 48.5174 23.0247 48.0973 23.0006 47.8801C22.9764 47.6628 22.9117 47.1457 22.8567 46.731C22.6463 45.1437 22.5701 42.8537 22.6703 41.1293C22.9308 36.6453 23.9947 32.5968 25.9827 28.5254C27.8079 24.7871 30.1489 21.5423 33.3208 18.3538C35.0052 16.6607 36.2623 15.5899 38.8607 13.6352C39.2889 13.3131 41.2672 12.0268 42.0256 11.5775C46.082 9.1741 50.5426 7.37653 55.1887 6.27278C58.4631 5.49493 61.0611 5.10567 64.3597 4.89877C67.9478 4.67369 71.3427 4.82796 74.8255 5.37441C75.7324 5.51668 77.3094 5.81746 77.7746 5.93689C77.9131 5.97244 78.3177 6.07197 78.6737 6.15815C81.0516 6.73355 83.8528 7.7624 86.0825 8.87944C86.8341 9.25598 87.4773 9.57657 87.5118 9.59173C87.7033 9.67611 87.1933 9.14308 86.8821 8.93366C84.8087 7.53826 82.9934 6.61447 80.2202 5.54368C79.0598 5.09554 77.8642 4.72964 76.0483 4.2667C74.4579 3.86122 71.861 3.41891 70.4378 3.31111C70.1411 3.28863 69.6232 3.23901 69.2869 3.20073C68.6675 3.13028 64.0976 3.05752 63.5685 3.10966ZM41.3783 86.2353C39.9166 86.5294 39.6214 86.6071 37.1704 87.3447C35.0271 87.9896 33.9382 88.2601 32.8371 88.4209C31.8801 88.5607 29.9392 88.5624 29.2153 88.4241C27.9206 88.1767 27.046 87.633 26.426 86.69L26.0821 86.167L25.5192 87.1862C22.7862 92.1343 20.7458 95.12 18.2465 97.8281C16.7886 99.4079 15.9698 100.03 13.2918 101.595C9.83226 103.616 8.69599 104.461 7.6797 105.768C6.94069 106.718 6.67245 107.545 6.72568 108.708C6.77438 109.772 7.04118 110.498 7.8214 111.69C8.48128 112.697 9.24473 113.357 10.1968 113.741C10.5892 113.9 10.7294 113.916 11.7433 113.916C12.9024 113.916 13.2086 113.864 14.9441 113.376C16.6383 112.9 17.8944 112.658 18.666 112.66C19.2665 112.661 20.345 112.916 20.9346 113.196C22.2189 113.805 23.1255 114.682 24.8752 117.007C26.7345 119.479 27.6374 120.371 28.8625 120.948C30.2661 121.608 32.062 121.704 33.7193 121.206C34.2939 121.034 35.2203 120.585 35.4644 120.361C35.5182 120.312 35.5865 120.272 35.6161 120.272C35.7657 120.272 36.9186 119.03 36.9186 118.869C36.9186 118.843 36.977 118.736 37.0482 118.631C37.2968 118.266 37.4221 117.676 37.4221 116.871C37.4221 116.063 37.3295 115.618 36.9562 114.634C35.7981 111.579 35.4274 110.491 34.9626 108.781C34.8145 108.236 34.7971 108.016 34.7998 106.734C34.8025 105.484 34.8249 105.204 34.9721 104.58C35.1807 103.694 35.4401 102.724 35.5574 102.389C36.017 101.079 36.4445 99.9892 36.8109 99.1933C36.8655 99.0748 37.0134 98.7517 37.1397 98.4752C38.405 95.7035 40.0512 92.3928 40.4428 91.8321C40.5117 91.7333 40.5908 91.5799 40.6184 91.491C40.646 91.4021 40.6951 91.3294 40.7274 91.3294C40.7597 91.3294 40.8051 91.2729 40.8284 91.2037C40.8683 91.0856 40.9784 90.8897 41.2423 90.4676C41.7688 89.6255 41.9924 89.2773 42.0265 89.2467C42.0486 89.2269 42.1874 89.0267 42.335 88.8018C42.4827 88.5769 42.8619 88.0613 43.1779 87.6561C43.7788 86.8853 43.8079 86.793 43.5456 86.4895C43.1933 86.0818 42.5285 86.0039 41.3783 86.2353Z" fill="#E1017D"/>
</g>
<defs>
<filter id="filter0_d_340_59985" x="0" y="0" width="105" height="133" filterUnits="userSpaceOnUse" color-interpolation-filters="sRGB">
<feFlood flood-opacity="0" result="BackgroundImageFix"/>
<feColorMatrix in="SourceAlpha" type="matrix" values="0 0 0 0 0 0 0 0 0 0 0 0 0 0 0 0 0 0 127 0" result="hardAlpha"/>
<feOffset dy="4"/>
<feGaussianBlur stdDeviation="2"/>
<feComposite in2="hardAlpha" operator="out"/>
<feColorMatrix type="matrix" values="0 0 0 0 0 0 0 0 0 0 0 0 0 0 0 0 0 0 0.86 0"/>
<feBlend mode="normal" in2="BackgroundImageFix" result="effect1_dropShadow_340_59985"/>
<feBlend mode="normal" in="SourceGraphic" in2="effect1_dropShadow_340_59985" result="shape"/>
</filter>
</defs>
</svg>

<svg xmlns="http://www.w3.org/2000/svg" width="105" height="133" fill="none" viewBox="0 0 105 133"><g filter="url(#a)"><path fill="#e1017d" fill-rule="evenodd" d="M65.619.02c-.79.043-2.43.177-3.49.286-3.434.354-8.528 1.282-11.76 2.143l-.863.228c-.785.202-4.051 1.25-4.531 1.453-.1.042-.569.228-1.043.413-4.378 1.707-8.622 4.13-11.869 6.776-3.752 3.059-6.657 6.535-9.19 10.994-.49.863-1.551 3.004-1.78 3.591a14 14 0 0 1-.253.61c-.208.452-.746 1.908-1.061 2.873-1.762 5.392-2.52 11.451-2.207 17.639.163 3.228.657 6.63 1.58 10.872.171.79 1.016 4.157 1.188 4.735.06.2.272.946.473 1.657a234 234 0 0 0 1.97 6.5c.132.414.408 1.287.613 1.939.205.651.497 1.573.65 2.047 1.047 3.263 1.237 3.967 1.443 5.35.13.874.148 1.22.11 2.154-.074 1.82-.1 1.902-1.09 3.448-.468.73-1.178 1.878-1.579 2.55-1.107 1.854-1.089 1.825-2.098 3.347-1.804 2.72-3.58 4.717-5.42 6.1-.667.501-1.679 1.082-3.453 1.983-2.418 1.228-3.186 1.756-4.372 3.006-1.769 1.863-3.071 4.262-3.43 6.32-.347 1.984-.114 3.918.661 5.492.275.559.441.787.916 1.257.66.654 1.23.988 2.233 1.304.638.201.672.204 2.374.201 1.934-.003 2.216-.045 4.812-.712 1.397-.359 1.944-.404 2.66-.218 1.558.406 2.601 1.281 4.814 4.038 1.5 1.868 1.838 2.247 2.636 2.945 1.377 1.205 2.876 1.734 4.678 1.65 2.704-.125 5.46-1.409 7.568-3.524 1.411-1.416 2.32-3.159 2.608-5.002.122-.779.088-2.55-.066-3.411-.253-1.423-.918-3.445-1.876-5.709-.647-1.53-.711-2.169-.392-3.918.322-1.763 1.024-3.73 2.297-6.438.6-1.273.69-1.427.975-1.63.172-.124.404-.371.516-.55 1.217-1.953 2.653-3.341 4.699-4.541.64-.376 2.567-1.324 2.877-1.416a1 1 0 0 0 .251-.108c.065-.048 2.264-.888 3.489-1.333 2.258-.819 2.815-1.028 3.632-1.36 2.248-.915 5.611-2.428 7.985-3.593 4.808-2.359 8.818-4.816 13.398-8.21 2.948-2.183 4.884-3.851 7.428-6.397 3.138-3.14 5.383-5.987 7.46-9.46 1.85-3.091 3.819-7.283 5.098-10.856 1.724-4.817 2.566-8.562 2.982-13.254.13-1.468.148-2.064.117-3.888-.021-1.185-.073-2.462-.117-2.837-.208-1.789-.313-2.602-.412-3.196l-.177-1.077c-.483-2.992-1.371-5.685-2.58-7.827-.48-.85-1.78-2.66-2.53-3.52-2.221-2.554-3.458-3.752-5.529-5.359-2.865-2.223-6.669-4.129-10.285-5.152C77.075.779 75.346.455 72.56.153c-.954-.104-5.758-.195-6.942-.132m-2.05 3.09c-.159.015-.936.078-1.727.138-3.93.3-7.917 1.004-12.084 2.135-.277.075-.665.18-.863.232s-.457.128-.576.168-.507.16-.863.268c-.865.26-1.284.399-2.266.75-.454.163-.924.33-1.042.37-.12.041-.313.116-.432.167-.119.05-.442.18-.72.29-.276.108-.762.308-1.078.443l-.72.308c-.2.085-3.068 1.503-3.2 1.582-.06.036-.572.333-1.137.66-.567.328-1.084.629-1.151.669-.787.466-3.505 2.415-3.754 2.692-.02.022-.376.334-.792.693a28.8 28.8 0 0 0-5.2 5.915c-.275.414-.56.841-.635.948s-.135.21-.135.23-.11.222-.244.451c-.625 1.068-1.315 2.53-1.873 3.972-.146.376-.293.752-.327.836-.111.272-.629 1.84-.79 2.396-.705 2.422-1.123 4.578-1.455 7.505-.117 1.03-.153 1.919-.181 4.38-.03 2.756-.018 3.282.122 4.884.294 3.383.808 6.195 1.695 9.265.321 1.111.647 2.13.86 2.693.874 2.302 1.598 3.877 2.564 5.584.318.563.594 1.023.612 1.023.037 0 .003-.269-.201-1.616-.218-1.433-.52-2.965-1.179-5.996-.257-1.183-.46-2.134-.645-3.017l-.207-.97a64 64 0 0 1-.296-1.508 56 56 0 0 0-.252-1.292 8 8 0 0 1-.109-.647 18 18 0 0 0-.143-.897A16 16 0 0 1 23 47.88a73 73 0 0 0-.144-1.149c-.21-1.587-.287-3.877-.187-5.602.26-4.484 1.325-8.532 3.313-12.604 1.825-3.738 4.166-6.983 7.338-10.171 1.684-1.693 2.941-2.764 5.54-4.719.428-.322 2.406-1.608 3.165-2.057a47.4 47.4 0 0 1 13.163-5.305c3.274-.778 5.872-1.167 9.17-1.374a47.3 47.3 0 0 1 13.416 1.038c.138.035.543.135.899.221 2.378.576 5.179 1.604 7.408 2.721.752.377 1.395.698 1.43.713.191.084-.319-.449-.63-.658-2.073-1.396-3.889-2.32-6.662-3.39-1.16-.448-2.356-.814-4.172-1.277-1.59-.406-4.187-.848-5.61-.956a37 37 0 0 1-1.151-.11c-.62-.07-5.19-.143-5.719-.091m-22.19 83.125c-1.462.294-1.758.372-4.209 1.11-2.143.645-3.232.915-4.333 1.076-.957.14-2.898.141-3.622.003-1.294-.247-2.169-.791-2.789-1.734l-.344-.523-.563 1.02c-2.733 4.947-4.773 7.933-7.272 10.641-1.458 1.58-2.277 2.202-4.955 3.767-3.46 2.021-4.596 2.866-5.612 4.173-.74.95-1.008 1.777-.954 2.94.048 1.064.315 1.79 1.095 2.982.66 1.007 1.424 1.667 2.376 2.051.392.159.532.175 1.546.175 1.16 0 1.466-.052 3.201-.54 1.694-.476 2.95-.718 3.722-.716.6.001 1.679.256 2.269.536 1.284.609 2.19 1.486 3.94 3.811 1.86 2.472 2.762 3.364 3.988 3.941 1.403.66 3.199.756 4.856.258.575-.172 1.501-.621 1.745-.845.054-.049.123-.089.152-.089.15 0 1.303-1.242 1.303-1.403 0-.026.058-.133.13-.238.248-.365.373-.955.373-1.76 0-.808-.092-1.253-.466-2.237-1.158-3.055-1.529-4.143-1.993-5.853-.148-.545-.166-.765-.163-2.047.003-1.25.025-1.53.172-2.154.209-.886.468-1.856.585-2.191.46-1.31.887-2.4 1.254-3.196l.329-.718c1.265-2.771 2.911-6.082 3.303-6.643.069-.099.148-.252.175-.341.028-.089.077-.162.11-.162.032 0 .077-.056.1-.125.04-.118.15-.314.414-.736.527-.843.75-1.19.785-1.221.022-.02.16-.22.308-.445s.527-.74.843-1.146c.6-.77.63-.863.368-1.166-.353-.408-1.017-.486-2.168-.255" clip-rule="evenodd"/></g><defs><filter id="a" width="105" height="133" x="0" y="0" color-interpolation-filters="sRGB" filterUnits="userSpaceOnUse"><feFlood flood-opacity="0" result="BackgroundImageFix"/><feColorMatrix in="SourceAlpha" result="hardAlpha" values="0 0 0 0 0 0 0 0 0 0 0 0 0 0 0 0 0 0 127 0"/><feOffset dy="4"/><feGaussianBlur stdDeviation="2"/><feComposite in2="hardAlpha" operator="out"/><feColorMatrix values="0 0 0 0 0 0 0 0 0 0 0 0 0 0 0 0 0 0 0.86 0"/><feBlend in2="BackgroundImageFix" result="effect1_dropShadow_340_59985"/><feBlend in="SourceGraphic" in2="effect1_dropShadow_340_59985" result="shape"/></filter></defs></svg>
